X: 8
T: The Shapron
T: The Chaperon
N: Shapron" is an old (18th century) spelling of "Chaperon".
M: 4/4
L: 1/8
R: reel
F: http://www.thesession.org/tunes/display/8739
K: D
|: FE |\
D2 F2 F2 AG | A2 d2 d2 c2 | B2 A2 G2 F2 | ED EF E2 FE |
D2 F2 F2 AG | A2 d2 d2 e2 | fa fd eg ec | d2 d2 d2 :|
|: fg |\
a2 f2 b2 ag | a2 d2 d2 ef | g2 e2 f2 d2 | ed cB A2 fg |
a2 f2 b2 ag | a2 d2 d2 e2 | fa fd eg ec | d2 d2 d2 :|

%%sep 2 1 500

